images/movies.svg

<svg xmlns="http://www.w3.org/2000/svg" width="512" height="512" viewBox="0 0 55 55"><path fill="#D80027" d="M.5 55h54V37H.5v18zm17-11h4v-2c0-.553.447-1 1-1s1 .447 1 1v2h24c.553 0 1 .447 1 1s-.447 1-1 1h-24v2c0 .553-.447 1-1 1s-1-.447-1-1v-2h-4c-.553 0-1-.447-1-1s.447-1 1-1zm-7-2c0-.553.447-1 1-1s1 .447 1 1v6c0 .553-.447 1-1 1s-1-.447-1-1v-6zm-4 0c0-.553.447-1 1-1s1 .447 1 1v6c0 .553-.447 1-1 1s-1-.447-1-1v-6zM.5 0v35h54V0H.5zm33.537 18.844l-11 7c-.164.103-.35.156-.537.156-.165 0-.33-.04-.48-.123-.32-.176-.52-.512-.52-.877V11c0-.365.2-.7.52-.877.32-.175.708-.162 1.018.033l11 7c.287.184.462.502.462.844s-.175.66-.463.844z"/></svg>

<?xml version="1.0" encoding="iso-8859-1"?>
<!-- Generator: Adobe Illustrator 19.0.0, SVG Export Plug-In . SVG Version: 6.00 Build 0)  -->
<svg xmlns="http://www.w3.org/2000/svg" xmlns:xlink="http://www.w3.org/1999/xlink" version="1.1" id="Capa_1" x="0px" y="0px" viewBox="0 0 55 55" style="enable-background:new 0 0 55 55;" xml:space="preserve" width="512px" height="512px">
<g>
	<path d="M0.5,55h54V37h-54V55z M17.5,44h4v-2c0-0.553,0.447-1,1-1s1,0.447,1,1v2h24c0.553,0,1,0.447,1,1s-0.447,1-1,1h-24v2   c0,0.553-0.447,1-1,1s-1-0.447-1-1v-2h-4c-0.553,0-1-0.447-1-1S16.947,44,17.5,44z M10.5,42c0-0.553,0.447-1,1-1s1,0.447,1,1v6   c0,0.553-0.447,1-1,1s-1-0.447-1-1V42z M6.5,42c0-0.553,0.447-1,1-1s1,0.447,1,1v6c0,0.553-0.447,1-1,1s-1-0.447-1-1V42z" fill="#D80027"/>
	<path d="M0.5,0v35h54V0H0.5z M34.037,18.844l-11,7C22.873,25.947,22.687,26,22.5,26c-0.165,0-0.331-0.041-0.481-0.123   C21.699,25.701,21.5,25.365,21.5,25V11c0-0.365,0.199-0.701,0.519-0.877c0.321-0.175,0.709-0.162,1.019,0.033l11,7   C34.325,17.34,34.5,17.658,34.5,18S34.325,18.66,34.037,18.844z" fill="#D80027"/>
</g>
<g>
</g>
<g>
</g>
<g>
</g>
<g>
</g>
<g>
</g>
<g>
</g>
<g>
</g>
<g>
</g>
<g>
</g>
<g>
</g>
<g>
</g>
<g>
</g>
<g>
</g>
<g>
</g>
<g>
</g>
</svg>
